icon-themes/sifr_svg/cmd/sc_gluehorzalignleft.svg

<svg viewBox="0 0 16 16" xmlns="http://www.w3.org/2000/svg"><g fill="#555753"><path d="m14 6h-4v-4h-4v4h-4v4h4v4h4v-4h4z" opacity=".35"/><path d="m8 6c-1.108 0-2 .892-2 2v2h-2.5410156c-.713616-1.2360223-2.0317504-1.9981733-3.4589844-2v8c1.427234 0 2.7453684-.763978 3.4589844-2h4.5410156c1.108 0 2-.892 2-2v-4c0-1.108-.892-2-2-2z"/></g></svg>

<svg xmlns="http://www.w3.org/2000/svg" viewBox="0 0 16 16">
  <path
     style="opacity:0.35;fill:#555753"
     d="M 14,6 H 10 V 2 H 6 V 6 H 2 v 4 h 4 v 4 h 4 v -4 h 4 z"
     />
  <path
     style="fill:#555753"
     d="M 8 6 C 6.892 6 6 6.892 6 8 L 6 10 L 3.4589844 10 C 2.7453684 8.7639777 1.427234 8.0018267 0 8 L 0 16 C 1.427234 16 2.7453684 15.236022 3.4589844 14 L 8 14 C 9.108 14 10 13.108 10 12 L 10 8 C 10 6.892 9.108 6 8 6 z "
     />
</svg>
